X:4338
T: Money Musk
T: Sir Archibald Grant of Monymusk
O:england
C: Daniel Dow, c. 1776
S: New England version arranged by Randy Miller in Miller and Perron 1983.
N: Adapted by Robert Bley-Vroman, Contradancers of Hawaii, 12 March 1999
N: D part added by R B-V. D part omitted for 24-bar contra dance.
N: http://www.lll.hawaii.edu/contra/
N: mailto:vroman@hawaii.edu
R: Reel
M: C|
L: 1/8
K: A
P: A
|: f |"A" eAcA eAdf |"A" eAcA "E7" Bcdf |"A" eAcA cdea |"E7" fdBe "A" cA A :|
P: B
|: g |"A" aefa eaca |"A" aedb "E7" caBg |"A" aefa eaca |"E7" fdBe "A" cA A :|
P: C
E |"A" ABcA "D" d2d2 |"A"  ABcA   "E7"B2cB |"A" ABcd ecea |"E7" gefg "A" a2 AB  |
"A" cBcA "D" d2ed |"A" cB(3cBA "E7"B2cB |"A" ABcd ecea |"E7" gefg "A" a4 ||
P: D
|:"A" Aceg a2 a2 |"A" Aceg "E7" b2 b2 |"A" Aceg a2 a2 |"E7" gefg "A" a4 :|


